themes/Dracula-pink-accent/gnome-shell/assets/close-window.svg

<?xml version="1.0" encoding="UTF-8" standalone="no"?>
<!-- Generator: Adobe Illustrator 13.0.2, SVG Export Plug-In . SVG Version: 6.00 Build 14948)  -->

<svg
   xmlns:dc="http://purl.org/dc/elements/1.1/"
   xmlns:cc="http://creativecommons.org/ns#"
   xmlns:rdf="http://www.w3.org/1999/02/22-rdf-syntax-ns#"
   xmlns:svg="http://www.w3.org/2000/svg"
   xmlns="http://www.w3.org/2000/svg"
   xmlns:sodipodi="http://sodipodi.sourceforge.net/DTD/sodipodi-0.dtd"
   xmlns:inkscape="http://www.inkscape.org/namespaces/inkscape"
   version="1.0"
   id="Foreground"
   x="0px"
   y="0px"
   width="32"
   height="32"
   viewBox="0 0 23.272727 23.272727"
   enable-background="new 0 0 16 16"
   xml:space="preserve"
   sodipodi:version="0.32"
   inkscape:version="0.91 r13725"
   sodipodi:docname="close-window.svg"
   inkscape:output_extension="org.inkscape.output.svg.inkscape"><metadata
     id="metadata2399"><rdf:RDF><cc:Work
         rdf:about=""><dc:format>image/svg+xml</dc:format><dc:type
           rdf:resource="http://purl.org/dc/dcmitype/StillImage" /><dc:title /></cc:Work></rdf:RDF></metadata><defs
     id="defs2397"><linearGradient
       id="linearGradient3173"><stop
         style="stop-color:#c4c4c4;stop-opacity:1;"
         offset="0"
         id="stop3175" /><stop
         style="stop-color:#ffffff;stop-opacity:1;"
         offset="1"
         id="stop3177" /></linearGradient><inkscape:perspective
       sodipodi:type="inkscape:persp3d"
       inkscape:vp_x="0 : 8 : 1"
       inkscape:vp_y="0 : 1000 : 0"
       inkscape:vp_z="16 : 8 : 1"
       inkscape:persp3d-origin="8 : 5.3333333 : 1"
       id="perspective2401" /></defs><sodipodi:namedview
     inkscape:window-height="704"
     inkscape:window-width="1366"
     inkscape:pageshadow="2"
     inkscape:pageopacity="0"
     guidetolerance="10.0"
     gridtolerance="10.0"
     objecttolerance="10.0"
     borderopacity="1.0"
     bordercolor="#666666"
     pagecolor="#000000"
     id="base"
     showgrid="true"
     inkscape:zoom="32.000001"
     inkscape:cx="12.529333"
     inkscape:cy="16.069558"
     inkscape:window-x="0"
     inkscape:window-y="27"
     inkscape:current-layer="Foreground"
     showguides="true"
     inkscape:guide-bbox="true"
     borderlayer="true"
     inkscape:showpageshadow="false"
     inkscape:window-maximized="1"
     inkscape:snap-bbox="true"><inkscape:grid
       type="xygrid"
       id="grid11246"
       empspacing="5"
       visible="true"
       enabled="true"
       snapvisiblegridlinesonly="true" /></sodipodi:namedview><path
     clip-rule="evenodd"
     d="m 0.7272726,11.636364 c 0,-6.0245464 4.8845457,-10.90909163 10.9090924,-10.90909163 6.024543,0 10.909089,4.88454523 10.909089,10.90909163 0,6.024546 -4.884546,10.909091 -10.909089,10.909091 -6.0245467,0 -10.9090924,-4.884545 -10.9090924,-10.909093 z"
     id="path2394-32"
     style="color:#000000;fill:#ff5f50;fill-opacity:1;fill-rule:nonzero;stroke:none;stroke-width:1.45454550000000005;marker:none;visibility:visible;display:inline;overflow:visible;enable-background:accumulate"
     sodipodi:nodetypes="csssc"
     inkscape:connector-curvature="0" /><g
     id="g3172-6"
     transform="translate(4.7533483,2.8238929)" /><path
     d="m 8.9519832,7.2814498 2.6448998,2.6676769 2.68113,-2.6676769 c 1.118427,-0.9273761 2.760725,0.5779314 1.666643,1.6810017 l -2.644896,2.6676785 2.608666,2.631133 c 1.305091,1.315814 -0.493499,2.86379 -1.666647,1.681003 L 11.59688,13.274588 8.9519805,15.942266 C 7.9249237,16.97776 6.2096464,15.345788 7.285332,14.261263 L 9.9302312,11.63013 7.285332,8.9624515 C 6.1503592,7.8181541 7.8408705,6.1612084 8.9519832,7.2814498 z"
     inkscape:connector-curvature="0"
     id="path27279-0-5"
     style="font-size:medium;font-style:normal;font-variant:normal;font-weight:normal;font-stretch:normal;text-indent:0;text-align:start;text-decoration:none;line-height:normal;letter-spacing:normal;word-spacing:normal;text-transform:none;direction:ltr;block-progression:tb;writing-mode:lr-tb;text-anchor:start;color:#bebebe;fill:#ececec;fill-opacity:1;fill-rule:nonzero;stroke:none;stroke-width:1.78124988;marker:none;visibility:visible;display:inline;overflow:visible;enable-background:new;font-family:Andale Mono;-inkscape-font-specification:Andale Mono"
     sodipodi:nodetypes="ccccccccccccc" /></svg>

<?xml version="1.0" encoding="UTF-8"?>
<svg xmlns="http://www.w3.org/2000/svg" xmlns:xlink="http://www.w3.org/1999/xlink" width="32" height="32" viewBox="0 0 32 32">
<path fill-rule="nonzero" fill="rgb(100%, 37.254902%, 31.372549%)" fill-opacity="1" d="M 0.726562 11.636719 C 0.726562 5.613281 5.613281 0.726562 11.636719 0.726562 C 17.660156 0.726562 22.546875 5.613281 22.546875 11.636719 C 22.546875 17.660156 17.660156 22.546875 11.636719 22.546875 C 5.613281 22.546875 0.726562 17.660156 0.726562 11.636719 Z M 0.726562 11.636719 "/>
<path fill-rule="nonzero" fill="rgb(92.54902%, 92.54902%, 92.54902%)" fill-opacity="1" d="M 8.953125 7.28125 L 11.597656 9.949219 L 14.277344 7.28125 C 15.394531 6.355469 17.039062 7.859375 15.945312 8.960938 L 13.300781 11.628906 L 15.910156 14.261719 C 17.214844 15.578125 15.414062 17.125 14.242188 15.941406 L 11.597656 13.273438 L 8.953125 15.941406 C 7.925781 16.976562 6.210938 15.347656 7.285156 14.261719 L 9.929688 11.628906 L 7.285156 8.960938 C 6.148438 7.816406 7.839844 6.160156 8.953125 7.28125 Z M 8.953125 7.28125 "/>
</svg>
